X: 22232
T: La Femme Du Petrolier
R: reel
M: 4/4
K: Amixolydian
EGAB ABcd|e2eg eBA(B|B)dde dcBA|G2 G4 GG|
EGAB ABcd|e2eg eBA(B|B)dde dcBA|1 A2 A4 AA:|2 A2 A4 eg||
a2ab agee|agag e2eg|a2ab age2|d2 d4 eg|
a2ab agee|agag e2e2|egee BdBB|1 A2 A4 eg:|2 A2 A4 AA||

